X:336
T: Renren xixinjian
N: C1837
O: China, Ningxia Yenchuan
S: I, 171]
N: Hui
R: Xiaodiao]
M: 2/4
L: 1/16
K: F
d3dc2d2 | f2fAc4- | c2f2cdcA | GFGAc3dc4
d3dc2d2 | c2dfdcA2 | G6A2 | GAGFD2F2 | G3Ac4
G3AG2A2 | c2AcdfA2 | GAGFF2D4F2 | G2GFG2c2 | cAG4A2
FGFDCDFG | D8
G3FG2B2 | GAGFG2B2 | GAGFF2D4F2 | G2GFG2c2 | cAG4A2
FGFDCDFG | D8

